X:217 
T:Tom Rowsome's Slide* 
S:SeÃÂÃÂÃÂÃÂ¡n Reid
F:file ID: cre.4/217tom_r
B:CRE4.059: gan ainm
Q:180
L:1/8
M:12/8
R:jig
K:G
D|G2B d2B e2d c2A|d2c B2G A2G FED|
G2B d2B e2d c2A|B2d cAF G3 G2:|
B|AFE D3 B2A G3|c2B A3 d3 d2B|
c2B c2d e2d c2A|B2d cAF G3 G2:|




